build/img/logo.svg

<svg width="231" height="45" viewBox="0 0 231 45" fill="none" xmlns="http://www.w3.org/2000/svg">
<path d="M48.2603 22.3549L57.8027 33.2921H59.7683L49.3376 21.1813L59.1009 11.1006H57.1353L43.2814 25.3666V11.1006H41.6646V33.2921H43.2814V27.459L48.2603 22.3549Z" fill="#FCFCFC"/>
<path d="M78.7575 21.3097H64.3965V22.7363H78.7575V21.3097ZM78.7575 11.1015H64.3965V12.5598H78.7575V11.1015ZM64.3965 31.8347V33.293H78.7575V31.8347H64.3965Z" fill="#FCFCFC"/>
<path d="M92.6132 25.6525L101.553 11.1013H99.8731L91.8525 24.1627L83.832 11.1013H82.0566L90.9968 25.6525V33.2928H92.6136L92.6132 25.6525Z" fill="#FCFCFC"/>
<path d="M126.45 33.2931H128.035L128.003 11.1015H126.672L116.749 28.2525L106.827 11.1015H105.463V33.2931H107.048V14.3667L116.337 30.3446H117.13L126.418 14.3032L126.45 33.2931Z" fill="#FCFCFC"/>
<path d="M144.297 11.1015H142.68L132.472 33.2931H134.215L143.472 12.8769L152.761 33.2931H154.505L144.297 11.1015Z" fill="#FCFCFC"/>
<path d="M173.493 13.0991C171.908 11.7676 169.721 11.1019 166.931 11.1019H158.974V12.5602H166.931C169.277 12.5602 171.084 13.0991 172.352 14.1453C173.588 15.1915 174.223 16.6815 174.223 18.5836C174.223 20.5174 173.588 22.0074 172.352 23.0219C171.084 24.0681 169.277 24.5753 166.931 24.5753H158.974V33.2934H160.59V26.0337H166.931C169.721 26.0337 171.908 25.3996 173.493 24.0681C175.078 22.7366 175.871 20.9297 175.871 18.5837C175.871 16.2695 175.078 14.4307 173.493 13.0993L173.493 13.0991Z" fill="#FCFCFC"/>
<path d="M179.498 33.0382C179.751 33.2918 180.068 33.4186 180.449 33.4186C180.797 33.4186 181.114 33.2918 181.368 33.0382C181.622 32.7845 181.78 32.4358 181.78 32.0554C181.78 31.675 181.622 31.3579 181.368 31.1043C181.114 30.8507 180.797 30.7239 180.449 30.7239C180.068 30.7239 179.751 30.8507 179.498 31.1043C179.244 31.3579 179.117 31.675 179.117 32.0554C179.117 32.4358 179.244 32.7845 179.498 33.0382Z" fill="#FCFCFC"/>
<path d="M189.718 31.0104C191.271 32.6589 193.459 33.4516 196.28 33.4516C199.07 33.4516 201.258 32.659 202.843 31.0104C204.396 29.3936 205.189 27.0159 205.189 23.8774V11.1015H203.572V23.8141C203.572 26.5406 202.938 28.6012 201.702 29.9326C200.433 31.2958 198.658 31.9615 196.312 31.9615C193.935 31.9615 192.127 31.2958 190.891 29.9326C189.623 28.6011 189.021 26.5403 189.021 23.8141V11.1008H187.404V23.8767C187.404 27.0152 188.165 29.3929 189.718 31.0097L189.718 31.0104Z" fill="#FCFCFC"/>
<path d="M220.792 11.1015H219.175L208.967 33.2931H210.71L219.968 12.8769L229.256 33.2931H231L220.792 11.1015Z" fill="#FCFCFC"/>
<path d="M17.2849 0.00803506C16.9358 0.00896202 16.5624 0.0143117 16.4553 0.0197112C16.3482 0.025134 16.1674 0.035796 16.0533 0.0434597C15.9394 0.0511303 15.7273 0.0684745 15.5822 0.0820314C15.4371 0.0957273 15.2026 0.121093 15.0607 0.138446C14.9193 0.15592 14.724 0.181648 14.6274 0.19559C14.5306 0.209656 14.3506 0.23793 14.2274 0.258539C14.104 0.279002 13.8725 0.321491 13.7123 0.352896C13.5523 0.384304 13.2999 0.437807 13.1512 0.471971C13.0028 0.506157 12.7314 0.574236 12.5482 0.62311C12.3652 0.672117 12.0798 0.753638 11.9139 0.804385C11.7481 0.855134 11.5136 0.930401 11.3925 0.971614C11.2716 1.01282 11.085 1.07852 10.9779 1.11771C10.8707 1.15691 10.648 1.24271 10.4828 1.30854C10.3176 1.37437 10.0547 1.4848 9.89862 1.55391C9.74259 1.62301 9.47161 1.74939 9.2966 1.83494C9.1216 1.92037 8.87562 2.04499 8.75013 2.11183C8.62463 2.17879 8.4034 2.30102 8.25868 2.38368C8.11383 2.46634 7.90754 2.58795 7.80013 2.65403C7.69272 2.72011 7.49171 2.84851 7.3534 2.93922C7.21521 3.02992 7.01446 3.16559 6.90742 3.24085C6.80038 3.31609 6.61672 3.44914 6.49927 3.53671C6.38181 3.62415 6.17263 3.78621 6.03445 3.89677C5.89626 4.00745 5.68144 4.18547 5.55706 4.29263C5.43269 4.39966 5.24903 4.56272 5.14878 4.65507C5.04865 4.74728 4.86561 4.92204 4.74212 5.04324C4.61863 5.16447 4.42843 5.35806 4.3194 5.47351C4.21048 5.58884 4.03973 5.77541 3.94001 5.88808C3.84039 6.00064 3.68473 6.18229 3.59405 6.29158C3.50347 6.401 3.36263 6.576 3.2811 6.68077C3.1997 6.78542 3.05459 6.97863 2.95875 7.11005C2.8629 7.24159 2.69255 7.48755 2.58036 7.65691C2.46818 7.82613 2.32269 8.05227 2.25713 8.15943C2.19155 8.26646 2.07836 8.45867 2.00562 8.58654C1.93289 8.71431 1.81065 8.93817 1.73402 9.08391C1.65726 9.22964 1.54282 9.45854 1.4795 9.5927C1.41618 9.72674 1.32334 9.92975 1.27322 10.0438C1.2231 10.1578 1.13679 10.3642 1.08126 10.5024C1.02586 10.6406 0.943826 10.8554 0.899103 10.9798C0.854379 11.1041 0.783398 11.3104 0.741439 11.4383C0.699605 11.5661 0.628375 11.7989 0.583276 11.9554C0.538177 12.1121 0.470339 12.3664 0.432523 12.5207C0.394585 12.6751 0.337676 12.9285 0.306018 13.084C0.27436 13.2394 0.229008 13.4825 0.205389 13.6242C0.181647 13.7658 0.148227 13.9863 0.131143 14.1142C0.113932 14.242 0.0883037 14.4624 0.0741096 14.6041C0.0599131 14.7457 0.0398118 14.9888 0.0293857 15.1443C0.0190848 15.2997 0.00702268 15.6106 0.00262654 15.8353C-0.00252507 16.0947 -1.29513e-05 16.3375 0.00940966 16.5011C0.0174488 16.6427 0.0324008 16.8405 0.0425742 16.9408C0.0528752 17.0409 0.0756135 17.2247 0.0932027 17.3491C0.110917 17.4734 0.14496 17.6826 0.168829 17.8139C0.192824 17.9452 0.243327 18.1883 0.281015 18.3541C0.318703 18.5199 0.388803 18.7997 0.436792 18.9759C0.484908 19.1521 0.563803 19.4234 0.612292 19.5789C0.660909 19.7343 0.736788 19.969 0.781134 20.1003C0.82548 20.2316 0.902743 20.4521 0.952741 20.5902C1.00286 20.7284 1.09897 20.9828 1.16631 21.1556C1.23364 21.3283 1.34658 21.6081 1.41731 21.7774C1.48791 21.9466 1.62359 22.2605 1.71869 22.4747C1.81379 22.6888 1.9698 23.0308 2.06542 23.2347C2.16102 23.4385 2.37007 23.8653 2.52985 24.1832C2.68965 24.501 2.87582 24.8656 2.94353 24.9935C3.01125 25.1212 3.12896 25.3417 3.2051 25.4834C3.2811 25.625 3.41678 25.8737 3.5066 26.0362C3.59629 26.1985 3.74327 26.4614 3.83323 26.6203C3.92319 26.7793 4.05899 27.0167 4.13498 27.148C4.21112 27.2793 4.35508 27.5251 4.45521 27.6944C4.55521 27.8637 4.72593 28.1492 4.83447 28.3289C4.94301 28.5085 5.1013 28.7686 5.18623 28.9068C5.27128 29.0449 5.44539 29.3248 5.57329 29.5286C5.70118 29.7324 5.9219 30.0801 6.06386 30.3012C6.2057 30.5223 6.43446 30.8756 6.57216 31.0864C6.70998 31.2972 6.99905 31.7324 7.21448 32.0537C7.43006 32.3749 7.75819 32.8584 7.94361 33.1278C8.12916 33.3973 8.43356 33.8354 8.62023 34.1014C8.80691 34.3674 9.07272 34.7434 9.21091 34.9369C9.3491 35.1303 9.59507 35.4723 9.75764 35.6969C9.9202 35.9214 10.1944 36.2974 10.3672 36.5323C10.5399 36.7673 10.8393 37.1714 11.0325 37.4306C11.2257 37.6896 11.5451 38.1136 11.7423 38.3728C11.9394 38.6318 12.262 39.053 12.459 39.3087C12.6561 39.5644 12.9478 39.9402 13.1074 40.1441C13.2669 40.3479 13.4957 40.6391 13.6158 40.7911C13.7359 40.9431 14.0401 41.3241 14.2919 41.638C14.5437 41.9516 14.8915 42.3813 15.0648 42.5927C15.2381 42.804 15.5051 43.1269 15.6581 43.3099C15.8111 43.493 15.9782 43.6801 16.0293 43.7256C16.0805 43.7712 16.1648 43.8411 16.2165 43.8809C16.2684 43.9208 16.3629 43.9842 16.4267 44.0217C16.4904 44.0593 16.5752 44.1044 16.6151 44.1221C16.655 44.1398 16.7246 44.1676 16.7695 44.1839C16.8146 44.2002 16.9023 44.2265 16.9643 44.2422C17.0645 44.2676 17.1065 44.2707 17.3409 44.2701L17.6047 44.2694L17.7492 44.2308C17.8287 44.2096 17.9502 44.1673 18.0193 44.1367C18.0884 44.1062 18.1852 44.0576 18.2343 44.0288C18.2836 44.0001 18.3694 43.9426 18.4251 43.9014C18.4807 43.8601 18.5718 43.7864 18.6273 43.7374C18.6964 43.6766 18.8465 43.5028 19.1029 43.1871C19.309 42.9334 19.5967 42.5787 19.742 42.3991C19.8874 42.2194 20.1842 41.8491 20.4017 41.5762C20.619 41.3032 20.9016 40.9471 21.0294 40.7847C21.1573 40.6223 21.3856 40.3312 21.5366 40.1378C21.6877 39.9443 21.9789 39.5683 22.1836 39.3023C22.3883 39.0363 22.7256 38.5953 22.9332 38.3225C23.1407 38.0495 23.4538 37.634 23.6289 37.3991C23.804 37.1642 24.0722 36.8024 24.2251 36.5951C24.3779 36.3878 24.6529 36.0118 24.836 35.7597C25.0192 35.5074 25.3112 35.1022 25.4848 34.8593C25.6584 34.6162 25.9524 34.2008 26.1379 33.936C26.3234 33.6711 26.6055 33.265 26.7647 33.0336C26.9238 32.802 27.1953 32.4035 27.3679 32.1479C27.5405 31.8922 27.8287 31.4597 28.0085 31.1868C28.1883 30.914 28.457 30.5012 28.6056 30.2698C28.7543 30.0382 28.9879 29.6712 29.1245 29.4538C29.2612 29.2366 29.4495 28.9342 29.543 28.7817C29.6365 28.6293 29.8203 28.3266 29.9514 28.109C30.0826 27.8913 30.2958 27.5321 30.4253 27.3106C30.5548 27.0891 30.7453 26.7583 30.8487 26.5757C30.9521 26.3929 31.0963 26.136 31.169 26.0047C31.2418 25.8734 31.355 25.667 31.4207 25.5462C31.4862 25.4252 31.6205 25.1737 31.7192 24.9871C31.8178 24.8006 32.0094 24.4274 32.1452 24.158C32.2808 23.8885 32.459 23.5267 32.5409 23.354C32.6228 23.1812 32.7518 22.9042 32.8276 22.7384C32.9033 22.5726 33.0346 22.2757 33.1194 22.0789C33.2041 21.8819 33.3357 21.5653 33.412 21.3753C33.4882 21.1853 33.5959 20.9083 33.6513 20.7598C33.7066 20.6111 33.797 20.3596 33.8521 20.2007C33.9072 20.0418 33.9894 19.7931 34.0347 19.648C34.0799 19.5029 34.1482 19.2738 34.1863 19.1392C34.2244 19.0044 34.2865 18.7698 34.3243 18.6178C34.3621 18.4658 34.4131 18.2453 34.4377 18.1279C34.4622 18.0104 34.4961 17.8381 34.5131 17.7447C34.5299 17.6514 34.5579 17.4761 34.5753 17.3553C34.5926 17.2343 34.6155 17.0477 34.6263 16.9407C34.637 16.8335 34.6514 16.6499 34.6583 16.5324C34.6652 16.415 34.6709 16.2002 34.6709 16.055C34.6708 15.9099 34.6652 15.664 34.6584 15.5086C34.6516 15.353 34.6375 15.1099 34.6268 14.9684C34.6161 14.8267 34.5989 14.6317 34.5886 14.535C34.5784 14.4382 34.5557 14.2517 34.5383 14.1204C34.521 13.9891 34.4873 13.7658 34.4636 13.6242C34.4398 13.4825 34.398 13.2563 34.3708 13.1217C34.3435 12.9869 34.298 12.7777 34.2698 12.6568C34.2415 12.5359 34.1925 12.3409 34.1611 12.2234C34.1296 12.106 34.0677 11.8912 34.0238 11.7461C33.9798 11.601 33.9101 11.3832 33.869 11.2624C33.8279 11.1414 33.7605 10.9521 33.7191 10.8415C33.6779 10.731 33.6087 10.5528 33.5654 10.4458C33.522 10.3387 33.4458 10.1578 33.3958 10.0438C33.3458 9.92975 33.2527 9.72636 33.189 9.5917C33.1252 9.45715 33.0137 9.2343 32.9414 9.09646C32.869 8.95877 32.7602 8.75803 32.6997 8.65036C32.6391 8.5427 32.537 8.36696 32.4727 8.25992C32.4083 8.15276 32.2828 7.95264 32.1939 7.81522C32.1049 7.67765 31.9665 7.47136 31.8861 7.35667C31.8058 7.24197 31.6664 7.04912 31.576 6.92827C31.4858 6.80729 31.3348 6.61234 31.2406 6.49487C31.1463 6.37741 30.9939 6.1936 30.9021 6.08658C30.8101 5.97942 30.6611 5.80982 30.5709 5.7097C30.4807 5.60945 30.2344 5.35482 30.0233 5.14375C29.8124 4.93269 29.5507 4.68005 29.4419 4.58231C29.3331 4.48457 29.1635 4.33545 29.065 4.25091C28.9665 4.16624 28.7749 4.00819 28.6391 3.89966C28.5035 3.79112 28.314 3.6434 28.2183 3.5714C28.1226 3.49942 27.9482 3.37228 27.8307 3.289C27.7133 3.20559 27.4928 3.05559 27.3408 2.95571C27.1888 2.85571 26.9626 2.71173 26.8383 2.63574C26.7139 2.55974 26.533 2.4522 26.4363 2.39668C26.3395 2.34116 26.1586 2.24066 26.0343 2.17319C25.9099 2.10573 25.6583 1.97621 25.4752 1.88537C25.2922 1.79442 25.0378 1.67293 24.9099 1.61541C24.7811 1.54975 24.5574 1.45327 24.4128 1.39285C24.2682 1.33241 24.0219 1.23455 23.866 1.17551C23.7101 1.11633 23.448 1.02198 23.2831 0.96597C23.1159 0.909801 22.8606 0.827648 22.716 0.78343C22.5691 0.739325 22.3341 0.671632 22.1918 0.633174C22.0494 0.594742 21.8303 0.538203 21.7037 0.507678C21.5772 0.477153 21.3761 0.431674 21.2609 0.406411C21.1434 0.381286 20.931 0.338827 20.7886 0.312323C20.6463 0.285684 20.4045 0.243866 20.2486 0.219373C20.0927 0.194744 19.8555 0.160691 19.7199 0.143609C19.5866 0.126391 19.3629 0.101015 19.2251 0.0869395C19.0872 0.0729886 18.8545 0.0531641 18.7099 0.0427241C18.5653 0.0324116 18.3281 0.0182298 18.1834 0.011069C18.0366 0.00404726 17.6344 -0.000868139 17.2842 0.00012835L17.2849 0.00803506ZM14.4327 10.0132C14.526 10.0164 14.6562 10.0297 14.7221 10.0428C14.7879 10.0558 14.8869 10.0816 14.942 10.1C14.997 10.1184 15.0881 10.1551 15.1445 10.1816C15.2007 10.208 15.2859 10.2548 15.3337 10.2856C15.3814 10.3165 17.1276 11.6221 19.2142 13.187C21.3006 14.7518 23.0544 16.0733 23.1114 16.1236C23.1684 16.174 23.2605 16.2696 23.316 16.3361C23.3717 16.4027 23.445 16.5033 23.4792 16.5598C23.5134 16.6163 23.5607 16.7052 23.5845 16.7572C23.6081 16.8091 23.6416 16.8985 23.659 16.9558C23.6762 17.0132 23.7003 17.1109 23.7126 17.1731C23.7301 17.2616 23.7347 17.3451 23.734 17.5563C23.7333 17.7753 23.7278 17.8547 23.7058 17.9759C23.6909 18.058 23.6593 18.1834 23.6356 18.2544C23.6117 18.3254 23.5743 18.4191 23.5523 18.4627C23.5303 18.5063 23.4879 18.5792 23.458 18.6245C23.4282 18.6699 23.367 18.75 23.322 18.8026C23.2772 18.8552 23.1935 18.9374 23.1362 18.9854C23.0788 19.0334 21.3445 20.3379 19.2819 21.8845C17.2195 23.431 15.4853 24.7268 15.4283 24.7639C15.3714 24.8011 15.2667 24.8591 15.1959 24.8929C15.125 24.9267 15.019 24.9682 14.9602 24.985C14.9015 25.002 14.8001 25.0248 14.7349 25.036C14.6617 25.0486 14.5439 25.0562 14.4256 25.0562C14.3123 25.0562 14.1894 25.0485 14.1233 25.0371C14.0619 25.0267 13.9478 24.9981 13.8695 24.9737C13.7914 24.9493 13.6613 24.8956 13.5806 24.8544C13.4999 24.8132 13.3803 24.7414 13.3149 24.6948C13.2494 24.6483 13.1364 24.5508 13.0636 24.4784C12.9909 24.4057 12.8984 24.3001 12.8583 24.2434C12.8181 24.1868 12.7551 24.0823 12.718 24.011C12.681 23.9399 12.6312 23.8251 12.6075 23.756C12.5837 23.6869 12.5537 23.5795 12.5409 23.5173C12.5237 23.4336 12.5175 23.3486 12.5171 23.1907C12.5169 23.0307 12.5225 22.9502 12.5396 22.8703C12.5521 22.8115 12.5793 22.7126 12.6001 22.6505C12.6208 22.5883 12.6602 22.4924 12.6877 22.4374C12.7153 22.3825 12.7697 22.2897 12.8085 22.2311C12.8474 22.1727 12.9306 22.073 12.9933 22.0096C13.056 21.9462 13.1892 21.833 13.2894 21.7581C13.3896 21.6833 13.6836 21.4602 13.9426 21.2624C14.2018 21.0647 14.702 20.683 15.0544 20.4143C15.4068 20.1457 15.9072 19.764 16.1662 19.5663C16.4254 19.3685 16.9851 18.9417 17.4099 18.6175C17.835 18.2934 18.3295 17.9163 18.5092 17.7795C18.6888 17.6427 18.8348 17.5273 18.8337 17.5232C18.8326 17.5192 18.6856 17.4046 18.507 17.2687C18.3285 17.1328 17.2753 16.3295 16.1662 15.4838C15.0573 14.6381 13.9464 13.7907 13.6977 13.6008C13.449 13.4108 13.2095 13.2239 13.1654 13.1853C13.1215 13.1469 13.0404 13.0616 12.9853 12.996C12.9303 12.9303 12.8541 12.8248 12.8161 12.7612C12.7781 12.6978 12.7246 12.5937 12.6972 12.5302C12.6698 12.4666 12.631 12.3513 12.6112 12.2739C12.5912 12.1966 12.5682 12.0716 12.5599 11.9961C12.5516 11.9199 12.5485 11.8033 12.5526 11.7335C12.5568 11.6644 12.5691 11.5569 12.5799 11.4948C12.5908 11.4326 12.6192 11.323 12.6432 11.2513C12.6672 11.1796 12.7128 11.0694 12.7446 11.0063C12.7765 10.9433 12.8313 10.8493 12.8666 10.7975C12.9019 10.7456 12.996 10.6381 13.0756 10.5585C13.1591 10.4748 13.2684 10.381 13.3341 10.3364C13.3968 10.2939 13.4986 10.234 13.5603 10.2031C13.6221 10.1722 13.7207 10.1301 13.7794 10.1095C13.8381 10.0888 13.9286 10.0626 13.9804 10.0513C14.0322 10.0399 14.117 10.0254 14.1688 10.019C14.2207 10.0127 14.3395 10.0101 14.4327 10.0132Z" fill="white"/>
</svg>

<svg width="231" height="45" fill="none" xmlns="http://www.w3.org/2000/svg"><path d="m48.26 22.355 9.543 10.937h1.965l-10.43-12.11L59.1 11.1h-1.966L43.281 25.367V11.1h-1.616v22.191h1.616V27.46l4.98-5.104Zm30.497-1.045h-14.36v1.426h14.36V21.31Zm0-10.208h-14.36v1.458h14.36V11.1Zm-14.36 20.733v1.458h14.36v-1.458h-14.36Zm28.216-6.183 8.94-14.55h-1.68l-8.02 13.06-8.021-13.06h-1.775l8.94 14.55v7.64h1.617v-7.64Zm33.837 7.641h1.585l-.032-22.191h-1.331l-9.923 17.15-9.922-17.15h-1.364v22.191h1.585V14.367l9.289 15.978h.793l9.288-16.042.032 18.99Zm17.847-22.192h-1.617l-10.208 22.192h1.743l9.257-20.416 9.289 20.416h1.744l-10.208-22.191Zm29.196 1.999c-1.585-1.332-3.772-1.998-6.562-1.998h-7.957v1.458h7.957c2.346 0 4.153.54 5.421 1.585 1.236 1.046 1.871 2.537 1.871 4.439 0 1.933-.635 3.423-1.871 4.438-1.268 1.046-3.075 1.553-5.421 1.553h-7.957v8.718h1.616v-7.26h6.341c2.79 0 4.977-.633 6.562-1.965 1.585-1.331 2.378-3.138 2.378-5.484 0-2.314-.793-4.153-2.378-5.485Zm6.005 19.938c.253.254.57.38.951.38.348 0 .665-.126.919-.38a1.39 1.39 0 0 0 .412-.983c0-.38-.158-.697-.412-.95a1.27 1.27 0 0 0-.919-.381 1.29 1.29 0 0 0-.951.38 1.29 1.29 0 0 0-.381.951c0 .38.127.73.381.983Zm10.22-2.028c1.553 1.649 3.741 2.442 6.562 2.442 2.79 0 4.978-.793 6.563-2.442 1.553-1.616 2.346-3.994 2.346-7.133V11.102h-1.617v12.712c0 2.727-.634 4.787-1.87 6.119-1.269 1.363-3.044 2.029-5.39 2.029-2.377 0-4.185-.666-5.421-2.03-1.268-1.33-1.87-3.392-1.87-6.118V11.101h-1.617v12.776c0 3.138.761 5.516 2.314 7.133Zm31.074-19.909h-1.617l-10.208 22.192h1.743l9.258-20.416 9.288 20.416H231l-10.208-22.191Z" fill="#FCFCFC"/><path d="M17.285.008c-.35.001-.723.006-.83.012a22.372 22.372 0 0 0-1.395.119c-.14.017-.336.043-.433.057a22.056 22.056 0 0 0-1.476.276 21.252 21.252 0 0 0-1.237.332 18.972 18.972 0 0 0-.936.314 20.413 20.413 0 0 0-1.08.436 21.38 21.38 0 0 0-1.148.558 23.683 23.683 0 0 0-.95.542 22.585 22.585 0 0 0-.893.587 20.587 20.587 0 0 0-1.35 1.052c-.124.107-.308.27-.408.362a19.355 19.355 0 0 0-.83.818 20.212 20.212 0 0 0-.725.818c-.09.11-.231.285-.313.39A18.202 18.202 0 0 0 2.257 8.16a18.572 18.572 0 0 0-.523.924 15.758 15.758 0 0 0-.653 1.418 17.204 17.204 0 0 0-.34.936 17.777 17.777 0 0 0-.309 1.082 17.447 17.447 0 0 0-.227 1.104c-.023.142-.057.362-.074.49a17.605 17.605 0 0 0-.102 1.03c-.01.156-.022.467-.026.691-.006.26-.003.502.006.666.008.142.023.34.034.44a13.273 13.273 0 0 0 .126.873 15.837 15.837 0 0 0 .268 1.162 21.392 21.392 0 0 0 .73 2.18 33.868 33.868 0 0 0 .552 1.319c.095.214.25.556.346.76a61.825 61.825 0 0 0 .878 1.759l.262.49a62.127 62.127 0 0 0 1.63 2.845c.108.18.266.44.351.578a107.163 107.163 0 0 0 1.386 2.18 126.44 126.44 0 0 0 1.372 2.04 160.629 160.629 0 0 0 1.267 1.81 185.79 185.79 0 0 0 1.156 1.595 150.87 150.87 0 0 0 5.29 6.778c.154.183.321.37.372.416a2.476 2.476 0 0 0 .586.397 2.535 2.535 0 0 0 .35.12c.1.025.142.028.376.027h.264l.144-.04a2.087 2.087 0 0 0 .485-.201 2.562 2.562 0 0 0 .393-.292c.07-.06.22-.234.476-.55l.639-.788a180.368 180.368 0 0 0 3.887-5l.596-.804a179.47 179.47 0 0 0 1.26-1.736 151.347 151.347 0 0 0 1.28-1.825 125.308 125.308 0 0 0 1.84-2.764 120.293 120.293 0 0 0 .938-1.488 84.476 84.476 0 0 0 1.306-2.206 90.018 90.018 0 0 0 .572-1.03 60.037 60.037 0 0 0 1.12-2.192c.082-.173.21-.45.287-.616a38.188 38.188 0 0 0 .584-1.363c.076-.19.184-.467.24-.615a22.687 22.687 0 0 0 .383-1.112 20.662 20.662 0 0 0 .29-1.03 16.618 16.618 0 0 0 .188-.873 12.258 12.258 0 0 0 .113-.804c.011-.107.025-.291.032-.409a9.945 9.945 0 0 0 0-1.023 17.656 17.656 0 0 0-.07-.974 19.353 19.353 0 0 0-.124-.91 18.787 18.787 0 0 0-.194-.968 24.994 24.994 0 0 0-.109-.434 19.266 19.266 0 0 0-.292-.96 17.638 17.638 0 0 0-.304-.817 18.666 18.666 0 0 0-.376-.854 16.666 16.666 0 0 0-.716-1.332 19.545 19.545 0 0 0-.587-.903 18.848 18.848 0 0 0-.645-.862 19.784 19.784 0 0 0-.67-.785c-.09-.1-.337-.355-.548-.566-.21-.211-.472-.464-.581-.562A19.011 19.011 0 0 0 27.83 3.29a19.978 19.978 0 0 0-.993-.653 21.106 21.106 0 0 0-.402-.24 24.11 24.11 0 0 0-.402-.223 21.559 21.559 0 0 0-1.124-.558 8.798 8.798 0 0 0-.497-.222 21.217 21.217 0 0 0-1.13-.427 26.551 26.551 0 0 0-.567-.183 22.723 22.723 0 0 0-1.012-.276A21.978 21.978 0 0 0 20.249.22a20.694 20.694 0 0 0-1.024-.132A21.893 21.893 0 0 0 18.183.01a24.955 24.955 0 0 0-.899-.01v.007Zm-2.852 10.005c.093.003.223.017.29.03.065.013.164.039.219.057a1.967 1.967 0 0 1 .392.186c.047.03 1.794 1.336 3.88 2.901a574.299 574.299 0 0 1 3.897 2.937 2.144 2.144 0 0 1 .368.436c.034.056.082.145.105.197a1.949 1.949 0 0 1 .129.416c.017.089.022.172.021.383a2.063 2.063 0 0 1-.098.698 1.981 1.981 0 0 1-.084.209 1.959 1.959 0 0 1-.094.162c-.03.045-.091.125-.136.178a1.882 1.882 0 0 1-.186.182 852.4 852.4 0 0 1-3.854 2.9 743.343 743.343 0 0 1-3.854 2.879 1.865 1.865 0 0 1-.468.221c-.058.017-.16.04-.225.051-.073.013-.191.02-.31.02-.113 0-.236-.008-.302-.019a2.399 2.399 0 0 1-.253-.063 2.242 2.242 0 0 1-.29-.12c-.08-.04-.2-.113-.265-.16a2.302 2.302 0 0 1-.457-.451 2.396 2.396 0 0 1-.14-.232 2.258 2.258 0 0 1-.11-.255 2.342 2.342 0 0 1-.067-.239 1.573 1.573 0 0 1-.024-.326c0-.16.006-.24.023-.32a1.962 1.962 0 0 1 .148-.433 2.54 2.54 0 0 1 .12-.207c.04-.058.123-.158.185-.221a3.23 3.23 0 0 1 .296-.252c.1-.075.395-.298.654-.496l1.111-.848 1.112-.848 1.244-.948 1.1-.838a6.22 6.22 0 0 0 .324-.257 9.55 9.55 0 0 0-.327-.254l-2.34-1.785-2.47-1.883c-.248-.19-.487-.377-.532-.416a2.129 2.129 0 0 1-.349-.424 2.377 2.377 0 0 1-.119-.23 2.101 2.101 0 0 1-.086-.257 2.382 2.382 0 0 1-.051-.278 1.884 1.884 0 0 1 .02-.501c.01-.062.04-.172.063-.244.024-.071.07-.182.102-.245a2.27 2.27 0 0 1 .122-.209 2.242 2.242 0 0 1 .467-.461c.063-.042.165-.102.226-.133a2.052 2.052 0 0 1 .42-.152c.052-.011.137-.026.189-.032.052-.006.17-.009.264-.006Z" fill="#fff"/></svg>
